X:29
T:Behind the Haystack
Z:Gwen 2022-01-09 d'après la leçon de Jenn Butterworth
M:6/8
R:Jig
K:D
|: d2e fdB | d2e fdB | AFE EFE | AFE EFA |
   d2e fdB | d2e fdB | AFD DED | AFD DFA :|
|: B3 BAF | ABc dcB | AFE EFE | AFE EFA |
   B3 BAF | ABc dcB | AFD DED |1 AFD DFA :|2 AFD D2f |
|: g3 f3 | ede fdB | AFE EFE | AFE EFA |
   gbg faf | ede fdB | AFD DED |1 AFD D2f :|2 AFD D3 ||

